X: 12
T: My Love Is In America
Z: CreadurMawnOrganig
S: https://thesession.org/tunes/77#setting53174
R: reel
M: 4/4
L: 1/8
K: Dmaj
|:~F3G AB=cB|Ad~d2 AddA|FEFG AB=cA|G=cAG FDDE|
FEFG AB=cB|Addc defg|afge fd=cA|G=cAG FD D2:|
|:fdeg fdec|Ad~d2 Adde|fdeg fd=cA|G=cAG FD D2|
fdeg fdec|Addc defg|afge fd=cA|G=cAG FD D2:|

%-------------------- TUNE SEPARATOR --------------------%

